app/dist/common/images/aseer-trading-tourism.svg

<svg height="18" width="18" xmlns="http://www.w3.org/2000/svg"><path d="m0 0h18v18h-18z" fill="#002c5d"/><path d="m4 7.53 2.5-2.53h1.5l-4 4z" fill="#02aef2"/><path d="m5 9h-1v3h1v-1h9v-2h-1v1.4h-1v-1.4h-1v1.4h-1v-1.4h-1v1.4h-2v-1.4h-1v1.4h-1z" fill="#fdfdfd"/></svg>

<!-- by TradingView --><svg xmlns="http://www.w3.org/2000/svg" width="18" height="18"><path fill="#002C5D" d="M0 0h18v18H0z"/><path d="M4 7.53L6.5 5H8L4 9V7.53z" fill="#02AEF2"/><path d="M5 9H4v3h1v-1h9V9h-1v1.4h-1V9h-1v1.4h-1V9H9v1.4H7V9H6v1.4H5V9z" fill="#FDFDFD"/></svg>
